web/www/src/assets/img/steden/Cat Ba/boottocht.svg

<svg fill="none" height="176" viewBox="0 0 280 176" width="280" xmlns="http://www.w3.org/2000/svg" xmlns:xlink="http://www.w3.org/1999/xlink"><filter id="a" color-interpolation-filters="sRGB" filterUnits="userSpaceOnUse" height="112.829" width="62.4804" x="117.149" y="18.3623"><feFlood flood-opacity="0" result="BackgroundImageFix"/><feColorMatrix in="SourceAlpha" type="matrix" values="0 0 0 0 0 0 0 0 0 0 0 0 0 0 0 0 0 0 127 0"/><feOffset dx="4.31884" dy="-2.15942"/><feGaussianBlur stdDeviation="3.23913"/><feColorMatrix type="matrix" values="0 0 0 0 0 0 0 0 0 0 0 0 0 0 0 0 0 0 0.1 0"/><feBlend in2="BackgroundImageFix" mode="normal" result="effect1_dropShadow"/><feBlend in="SourceGraphic" in2="effect1_dropShadow" mode="normal" result="shape"/></filter><filter id="b" color-interpolation-filters="sRGB" filterUnits="userSpaceOnUse" height="81.5946" width="50.0662" x="65.8733" y="52.3154"><feFlood flood-opacity="0" result="BackgroundImageFix"/><feColorMatrix in="SourceAlpha" type="matrix" values="0 0 0 0 0 0 0 0 0 0 0 0 0 0 0 0 0 0 127 0"/><feOffset dx="3.18409" dy="-1.59204"/><feGaussianBlur stdDeviation="2.38806"/><feColorMatrix type="matrix" values="0 0 0 0 0 0 0 0 0 0 0 0 0 0 0 0 0 0 0.1 0"/><feBlend in2="BackgroundImageFix" mode="normal" result="effect1_dropShadow"/><feBlend in="SourceGraphic" in2="effect1_dropShadow" mode="normal" result="shape"/></filter><filter id="c" color-interpolation-filters="sRGB" filterUnits="userSpaceOnUse" height="95.3604" width="58.5121" x="190.824" y="37.7235"><feFlood flood-opacity="0" result="BackgroundImageFix"/><feColorMatrix in="SourceAlpha" type="matrix" values="0 0 0 0 0 0 0 0 0 0 0 0 0 0 0 0 0 0 127 0"/><feOffset dx="3.72124" dy="-1.86062"/><feGaussianBlur stdDeviation="2.79093"/><feColorMatrix type="matrix" values="0 0 0 0 0 0 0 0 0 0 0 0 0 0 0 0 0 0 0.1 0"/><feBlend in2="BackgroundImageFix" mode="normal" result="effect1_dropShadow"/><feBlend in="SourceGraphic" in2="effect1_dropShadow" mode="normal" result="shape"/></filter><filter id="d" color-interpolation-filters="sRGB" filterUnits="userSpaceOnUse" height="62.0833" width="287.203" x="0" y="114.996"><feFlood flood-opacity="0" result="BackgroundImageFix"/><feColorMatrix in="SourceAlpha" type="matrix" values="0 0 0 0 0 0 0 0 0 0 0 0 0 0 0 0 0 0 127 0"/><feOffset dx="5.39855"/><feGaussianBlur stdDeviation=".539855"/><feColorMatrix type="matrix" values="0 0 0 0 0.4125 0 0 0 0 0.4125 0 0 0 0 0.4125 0 0 0 0.1 0"/><feBlend in2="BackgroundImageFix" mode="normal" result="effect1_dropShadow"/><feBlend in="SourceGraphic" in2="effect1_dropShadow" mode="normal" result="shape"/></filter><filter id="e" color-interpolation-filters="sRGB" filterUnits="userSpaceOnUse" height="12.2095" width="16.9107" x="36.4595" y="98.3179"><feFlood flood-opacity="0" result="BackgroundImageFix"/><feColorMatrix in="SourceAlpha" type="matrix" values="0 0 0 0 0 0 0 0 0 0 0 0 0 0 0 0 0 0 127 0"/><feOffset dx="2.15942" dy="-1.07971"/><feGaussianBlur stdDeviation=".269928"/><feColorMatrix type="matrix" values="0 0 0 0 0 0 0 0 0 0 0 0 0 0 0 0 0 0 0.1 0"/><feBlend in2="BackgroundImageFix" mode="normal" result="effect1_dropShadow"/><feBlend in="SourceGraphic" in2="effect1_dropShadow" mode="normal" result="shape"/></filter><filter id="f" color-interpolation-filters="sRGB" filterUnits="userSpaceOnUse" height="13.8727" width="15.8318" x="174.34" y="103.267"><feFlood flood-opacity="0" result="BackgroundImageFix"/><feColorMatrix in="SourceAlpha" type="matrix" values="0 0 0 0 0 0 0 0 0 0 0 0 0 0 0 0 0 0 127 0"/><feOffset dx="2.15942" dy="-1.07971"/><feGaussianBlur stdDeviation=".269928"/><feColorMatrix type="matrix" values="0 0 0 0 0 0 0 0 0 0 0 0 0 0 0 0 0 0 0.1 0"/><feBlend in2="BackgroundImageFix" mode="normal" result="effect1_dropShadow"/><feBlend in="SourceGraphic" in2="effect1_dropShadow" mode="normal" result="shape"/></filter><filter id="g" color-interpolation-filters="sRGB" filterUnits="userSpaceOnUse" height="63.9442" width="63.9442" x="10.8426" y="1.37056"><feFlood flood-opacity="0" result="BackgroundImageFix"/><feColorMatrix in="SourceAlpha" type="matrix" values="0 0 0 0 0 0 0 0 0 0 0 0 0 0 0 0 0 0 127 0"/><feOffset dx="2.31472" dy="-1.15736"/><feGaussianBlur stdDeviation="1.73604"/><feColorMatrix type="matrix" values="0 0 0 0 0 0 0 0 0 0 0 0 0 0 0 0 0 0 0.1 0"/><feBlend in2="BackgroundImageFix" mode="normal" result="effect1_dropShadow"/><feBlend in="SourceGraphic" in2="effect1_dropShadow" mode="normal" result="shape"/></filter><mask id="h" height="176" maskUnits="userSpaceOnUse" width="280" x="0" y="0"><path d="m0 0h280v176h-280z" fill="#fff"/></mask><path d="m0 0h280v176h-280z" fill="#c1dd9b"/><g mask="url(#h)"><g filter="url(#a)"><path d="m134.716 116.555 5.107 10.318h20.205l6.053-8.254 2.751-87.0799-49.523 17.746z" fill="#f3e8cb"/><path d="m154.388 112.017 11.762-76.5561-2.27 81.9211z" fill="#c1dd9b"/><path d="m139.737 65.3806-18.365-14.8572 3.921 11.9683z" fill="#e3e687"/><path d="m130.245 36.2857-10.936 13.0001 49.523-17.7461-13.619-4.5397z" fill="#91d7b9"/><path d="m143.864 80.6504-8.46 6.6032 4.539 10.5238z" fill="#a2daaf"/></g><path d="m146.728 129.765 5.558-10.649-28.802-2.841-1.094 11.089z" fill="#000"/><path d="m98.0523 124.964-3.3707-11.529 28.8024 2.84-1.094 11.089z" fill="#000"/><path d="m122.925 118.98 5.667-57.4605" stroke="#000" stroke-width="1.15768"/><path d="m125.702 112.421 4.999-50.6925 19.338 53.0925z" fill="#000"/><path d="m121.565 112.012 5-50.6917-29.3377 48.2917z" fill="#000"/><g filter="url(#b)"><path d="m67.4656 118.55 1.6688 8.321 14.3891 3.855 5.8851-4.724 18.5704-61.4886-38.6537 3.1909z" fill="#f3e8cb"/><path d="m82.3409 119.07 22.9801-52.2756-17.2437 57.9066z" fill="#e3e687"/><path d="m80.8027 83.0642-10.2446-14.0837.5091 9.2711z" fill="#a2daaf"/><path d="m79.5938 60.533-10.2683 7.1718 38.6535-3.1909-8.8327-5.8309z" fill="#91d7b9"/><path d="m80.8292 94.7252-7.2846 3.0886 1.2255 8.3602z" fill="#e3e687"/></g><g filter="url(#c)"><path d="m240.033 115.132-1.95 9.726-16.817 4.504-6.878-5.52-21.703-71.8619 45.175 3.7292z" fill="#f3e8cb"/><path d="m222.648 115.74-26.857-61.0944 20.152 67.6754z" fill="#e3e687"/><path d="m224.446 73.6589 11.972-16.4597-.594 10.8351z" fill="#a2daaf"/><path d="m225.858 47.3287 12.001 8.3816-45.175-3.7292 10.323-6.8145z" fill="#91d7b9"/><path d="m224.415 87.2885 8.514 3.6096-1.433 9.7709z" fill="#e3e687"/></g><g filter="url(#d)"><path clip-rule="evenodd" d="m269.523 116.1c-.784 4.734-4.897 8.344-9.853 8.344-4.964 0-9.083-3.622-9.856-8.368h-.261c-.774 4.746-4.892 8.368-9.857 8.368-4.964 0-9.083-3.622-9.856-8.368h-.262c-.774 4.746-4.892 8.368-9.857 8.368-4.964 0-9.083-3.622-9.856-8.368h-.262c-.773 4.746-4.892 8.368-9.856 8.368-4.965 0-9.083-3.622-9.857-8.368h-.262c-.773 4.746-4.892 8.368-9.856 8.368-4.965 0-9.083-3.622-9.857-8.368h-.26c-.774 4.746-4.893 8.368-9.857 8.368-4.965 0-9.083-3.622-9.857-8.368h-.261c-.774 4.746-4.893 8.368-9.857 8.368-4.965 0-9.083-3.622-9.857-8.368h-.261c-.774 4.746-4.892 8.368-9.857 8.368-4.964 0-9.083-3.622-9.857-8.368h-.261c-.774 4.746-4.892 8.368-9.8568 8.368-4.9645 0-9.083-3.622-9.8568-8.368h-.2604c-.7738 4.746-4.8922 8.368-9.8567 8.368s-9.083-3.622-9.8567-8.368h-.2615c-.7737 4.746-4.8922 8.368-9.8567 8.368s-9.083-3.622-9.8567-8.368h-.2615c-.7737 4.746-4.8922 8.368-9.8567 8.368s-9.083-3.622-9.8567-8.368h-.2615c-.7737 4.746-4.8922 8.368-9.8567 8.368s-9.083-3.622-9.8567-8.368h-.26075c-.77358 4.746-4.89215 8.369-9.85677902 8.369h-.00037098v51.555h280.725v-51.646c-.442.059-.892.09-1.349.09-4.956 0-9.069-3.61-9.853-8.344z" fill="#89cdd3" fill-rule="evenodd"/></g><g filter="url(#e)"><g fill="#000"><path d="m39.6578 103.321c8.891-1.618 11.8004 4.515 10.8375 6.198z"/><path d="m39.6567 103.32c3.1417 8.435 9.884 7.866 10.8375 6.198z"/><path d="m39.6565 103.32-3.197 1.238 2.6425-4.621z"/></g><circle cx="48.1361" cy="107.064" fill="#fff" r=".576215" transform="matrix(-.49644378 .86806888 -.86806888 -.49644378 164.971894 118.429807)"/></g><g filter="url(#f)"><g fill="#000"><path d="m184.093 113.714c-1.35-8.936-8.095-9.701-9.376-8.244z"/><path d="m184.093 113.714c-8.998-.238-10.644-6.801-9.376-8.244z"/><path d="m184.093 113.714-.135 3.426 3.515-3.998z"/></g><circle fill="#fff" r=".576215" transform="matrix(-.660334 .750972 .750972 .660334 177.804 106.905)"/></g></g><g filter="url(#g)"><circle cx="40.5" cy="34.5" fill="#ffbd3a" r="28.5"/></g></svg>

<svg width="280" height="176" viewBox="0 0 280 176" fill="none" xmlns="http://www.w3.org/2000/svg">
<rect width="280" height="176" fill="#C1DD9B"/>
<mask id="mask0" mask-type="alpha" maskUnits="userSpaceOnUse" x="0" y="0" width="280" height="176">
<rect width="280" height="176" fill="white"/>
</mask>
<g mask="url(#mask0)">
<g filter="url(#filter0_d)">
<path d="M134.716 116.555L139.823 126.873H160.028L166.081 118.619L168.832 31.5391L119.309 49.2851L134.716 116.555Z" fill="#F3E8CB"/>
<path d="M154.388 112.017L166.15 35.4609L163.88 117.382L154.388 112.017Z" fill="#C1DD9B"/>
<path d="M139.737 65.3806L121.372 50.5234L125.293 62.4917L139.737 65.3806Z" fill="#E3E687"/>
<path d="M130.245 36.2857L119.309 49.2858L168.832 31.5397L155.213 27L130.245 36.2857Z" fill="#91D7B9"/>
<path d="M143.864 80.6504L135.404 87.2536L139.943 97.7774L143.864 80.6504Z" fill="#A2DAAF"/>
</g>
<path d="M146.728 129.765L152.286 119.116L123.484 116.275L122.39 127.364L146.728 129.765Z" fill="black"/>
<path d="M98.0523 124.964L94.6816 113.435L123.484 116.275L122.39 127.364L98.0523 124.964Z" fill="black"/>
<path d="M122.925 118.98L128.592 61.5195" stroke="black" stroke-width="1.15768"/>
<path d="M125.702 112.421L130.701 61.7285L150.039 114.821L125.702 112.421Z" fill="black"/>
<path d="M121.565 112.012L126.565 61.3203L97.2273 109.612L121.565 112.012Z" fill="black"/>
<g filter="url(#filter1_d)">
<path d="M67.4656 118.55L69.1344 126.871L83.5235 130.726L89.4086 126.002L107.979 64.5134L69.3253 67.7043L67.4656 118.55Z" fill="#F3E8CB"/>
<path d="M82.3409 119.07L105.321 66.7944L88.0773 124.701L82.3409 119.07Z" fill="#E3E687"/>
<path d="M80.8027 83.0642L70.5581 68.9805L71.0672 78.2516L80.8027 83.0642Z" fill="#A2DAAF"/>
<path d="M79.5938 60.533L69.3255 67.7048L107.979 64.5139L99.1463 58.683L79.5938 60.533Z" fill="#91D7B9"/>
<path d="M80.8292 94.7252L73.5446 97.8138L74.7701 106.174L80.8292 94.7252Z" fill="#E3E687"/>
</g>
<g filter="url(#filter2_d)">
<path d="M240.033 115.132L238.083 124.858L221.266 129.362L214.388 123.842L192.685 51.9801L237.86 55.7093L240.033 115.132Z" fill="#F3E8CB"/>
<path d="M222.648 115.74L195.791 54.6456L215.943 122.321L222.648 115.74Z" fill="#E3E687"/>
<path d="M224.446 73.6589L236.418 57.1992L235.824 68.0343L224.446 73.6589Z" fill="#A2DAAF"/>
<path d="M225.858 47.3287L237.859 55.7103L192.684 51.9811L203.007 45.1666L225.858 47.3287Z" fill="#91D7B9"/>
<path d="M224.415 87.2885L232.929 90.8981L231.496 100.669L224.415 87.2885Z" fill="#E3E687"/>
</g>
<g filter="url(#filter3_d)">
<path fill-rule="evenodd" clip-rule="evenodd" d="M269.523 116.1C268.739 120.834 264.626 124.444 259.67 124.444C254.706 124.444 250.587 120.822 249.814 116.076H249.553C248.779 120.822 244.661 124.444 239.696 124.444C234.732 124.444 230.613 120.822 229.84 116.076H229.578C228.804 120.822 224.686 124.444 219.721 124.444C214.757 124.444 210.638 120.822 209.865 116.076H209.603C208.83 120.822 204.711 124.444 199.747 124.444C194.782 124.444 190.664 120.822 189.89 116.076H189.628C188.855 120.822 184.736 124.444 179.772 124.444C174.807 124.444 170.689 120.822 169.915 116.076H169.655C168.881 120.822 164.762 124.444 159.798 124.444C154.833 124.444 150.715 120.822 149.941 116.076H149.68C148.906 120.822 144.787 124.444 139.823 124.444C134.858 124.444 130.74 120.822 129.966 116.076H129.705C128.931 120.822 124.813 124.444 119.848 124.444C114.884 124.444 110.765 120.822 109.991 116.076H109.73C108.956 120.822 104.838 124.444 99.8732 124.444C94.9087 124.444 90.7902 120.822 90.0164 116.076H89.756C88.9822 120.822 84.8638 124.444 79.8993 124.444C74.9348 124.444 70.8163 120.822 70.0426 116.076H69.7811C69.0074 120.822 64.8889 124.444 59.9244 124.444C54.9599 124.444 50.8414 120.822 50.0677 116.076H49.8062C49.0325 120.822 44.914 124.444 39.9495 124.444C34.985 124.444 30.8665 120.822 30.0928 116.076H29.8313C29.0576 120.822 24.9391 124.444 19.9746 124.444C15.0101 124.444 10.8916 120.822 10.1179 116.076H9.85715C9.08357 120.822 4.965 124.445 0.000370979 124.445H0V176H280.725V124.354C280.283 124.413 279.833 124.444 279.376 124.444C274.42 124.444 270.307 120.834 269.523 116.1Z" fill="#89CDD3"/>
</g>
<g filter="url(#filter4_d)">
<path d="M39.6578 103.321C48.5488 101.703 51.4582 107.836 50.4953 109.519L39.6578 103.321Z" fill="black"/>
<path d="M39.6567 103.32C42.7984 111.755 49.5407 111.186 50.4942 109.518L39.6567 103.32Z" fill="black"/>
<path d="M39.6565 103.32L36.4595 104.558L39.102 99.937L39.6565 103.32Z" fill="black"/>
<circle cx="48.1361" cy="107.064" r="0.576215" transform="rotate(119.765 48.1361 107.064)" fill="white"/>
</g>
<g filter="url(#filter5_d)">
<path d="M184.093 113.714C182.743 104.778 175.998 104.013 174.717 105.47L184.093 113.714Z" fill="black"/>
<path d="M184.093 113.714C175.095 113.476 173.449 106.913 174.717 105.47L184.093 113.714Z" fill="black"/>
<path d="M184.093 113.714L183.958 117.14L187.473 113.142L184.093 113.714Z" fill="black"/>
<circle r="0.576215" transform="matrix(-0.660334 0.750972 0.750972 0.660334 177.804 106.905)" fill="white"/>
</g>
</g>
<g filter="url(#filter6_d)">
<circle cx="40.5" cy="34.5" r="28.5" fill="#FFBD3A"/>
</g>
<defs>
<filter id="filter0_d" x="117.149" y="18.3623" width="62.4804" height="112.829" filterUnits="userSpaceOnUse" color-interpolation-filters="sRGB">
<feFlood flood-opacity="0" result="BackgroundImageFix"/>
<feColorMatrix in="SourceAlpha" type="matrix" values="0 0 0 0 0 0 0 0 0 0 0 0 0 0 0 0 0 0 127 0"/>
<feOffset dx="4.31884" dy="-2.15942"/>
<feGaussianBlur stdDeviation="3.23913"/>
<feColorMatrix type="matrix" values="0 0 0 0 0 0 0 0 0 0 0 0 0 0 0 0 0 0 0.1 0"/>
<feBlend mode="normal" in2="BackgroundImageFix" result="effect1_dropShadow"/>
<feBlend mode="normal" in="SourceGraphic" in2="effect1_dropShadow" result="shape"/>
</filter>
<filter id="filter1_d" x="65.8733" y="52.3154" width="50.0662" height="81.5946" filterUnits="userSpaceOnUse" color-interpolation-filters="sRGB">
<feFlood flood-opacity="0" result="BackgroundImageFix"/>
<feColorMatrix in="SourceAlpha" type="matrix" values="0 0 0 0 0 0 0 0 0 0 0 0 0 0 0 0 0 0 127 0"/>
<feOffset dx="3.18409" dy="-1.59204"/>
<feGaussianBlur stdDeviation="2.38806"/>
<feColorMatrix type="matrix" values="0 0 0 0 0 0 0 0 0 0 0 0 0 0 0 0 0 0 0.1 0"/>
<feBlend mode="normal" in2="BackgroundImageFix" result="effect1_dropShadow"/>
<feBlend mode="normal" in="SourceGraphic" in2="effect1_dropShadow" result="shape"/>
</filter>
<filter id="filter2_d" x="190.824" y="37.7235" width="58.5121" height="95.3604" filterUnits="userSpaceOnUse" color-interpolation-filters="sRGB">
<feFlood flood-opacity="0" result="BackgroundImageFix"/>
<feColorMatrix in="SourceAlpha" type="matrix" values="0 0 0 0 0 0 0 0 0 0 0 0 0 0 0 0 0 0 127 0"/>
<feOffset dx="3.72124" dy="-1.86062"/>
<feGaussianBlur stdDeviation="2.79093"/>
<feColorMatrix type="matrix" values="0 0 0 0 0 0 0 0 0 0 0 0 0 0 0 0 0 0 0.1 0"/>
<feBlend mode="normal" in2="BackgroundImageFix" result="effect1_dropShadow"/>
<feBlend mode="normal" in="SourceGraphic" in2="effect1_dropShadow" result="shape"/>
</filter>
<filter id="filter3_d" x="0" y="114.996" width="287.203" height="62.0833" filterUnits="userSpaceOnUse" color-interpolation-filters="sRGB">
<feFlood flood-opacity="0" result="BackgroundImageFix"/>
<feColorMatrix in="SourceAlpha" type="matrix" values="0 0 0 0 0 0 0 0 0 0 0 0 0 0 0 0 0 0 127 0"/>
<feOffset dx="5.39855"/>
<feGaussianBlur stdDeviation="0.539855"/>
<feColorMatrix type="matrix" values="0 0 0 0 0.4125 0 0 0 0 0.4125 0 0 0 0 0.4125 0 0 0 0.1 0"/>
<feBlend mode="normal" in2="BackgroundImageFix" result="effect1_dropShadow"/>
<feBlend mode="normal" in="SourceGraphic" in2="effect1_dropShadow" result="shape"/>
</filter>
<filter id="filter4_d" x="36.4595" y="98.3179" width="16.9107" height="12.2095" filterUnits="userSpaceOnUse" color-interpolation-filters="sRGB">
<feFlood flood-opacity="0" result="BackgroundImageFix"/>
<feColorMatrix in="SourceAlpha" type="matrix" values="0 0 0 0 0 0 0 0 0 0 0 0 0 0 0 0 0 0 127 0"/>
<feOffset dx="2.15942" dy="-1.07971"/>
<feGaussianBlur stdDeviation="0.269928"/>
<feColorMatrix type="matrix" values="0 0 0 0 0 0 0 0 0 0 0 0 0 0 0 0 0 0 0.1 0"/>
<feBlend mode="normal" in2="BackgroundImageFix" result="effect1_dropShadow"/>
<feBlend mode="normal" in="SourceGraphic" in2="effect1_dropShadow" result="shape"/>
</filter>
<filter id="filter5_d" x="174.34" y="103.267" width="15.8318" height="13.8727" filterUnits="userSpaceOnUse" color-interpolation-filters="sRGB">
<feFlood flood-opacity="0" result="BackgroundImageFix"/>
<feColorMatrix in="SourceAlpha" type="matrix" values="0 0 0 0 0 0 0 0 0 0 0 0 0 0 0 0 0 0 127 0"/>
<feOffset dx="2.15942" dy="-1.07971"/>
<feGaussianBlur stdDeviation="0.269928"/>
<feColorMatrix type="matrix" values="0 0 0 0 0 0 0 0 0 0 0 0 0 0 0 0 0 0 0.1 0"/>
<feBlend mode="normal" in2="BackgroundImageFix" result="effect1_dropShadow"/>
<feBlend mode="normal" in="SourceGraphic" in2="effect1_dropShadow" result="shape"/>
</filter>
<filter id="filter6_d" x="10.8426" y="1.37056" width="63.9442" height="63.9442" filterUnits="userSpaceOnUse" color-interpolation-filters="sRGB">
<feFlood flood-opacity="0" result="BackgroundImageFix"/>
<feColorMatrix in="SourceAlpha" type="matrix" values="0 0 0 0 0 0 0 0 0 0 0 0 0 0 0 0 0 0 127 0"/>
<feOffset dx="2.31472" dy="-1.15736"/>
<feGaussianBlur stdDeviation="1.73604"/>
<feColorMatrix type="matrix" values="0 0 0 0 0 0 0 0 0 0 0 0 0 0 0 0 0 0 0.1 0"/>
<feBlend mode="normal" in2="BackgroundImageFix" result="effect1_dropShadow"/>
<feBlend mode="normal" in="SourceGraphic" in2="effect1_dropShadow" result="shape"/>
</filter>
</defs>
</svg>
